tools/download-figma-icons/icons/outlined-medium/rfid-card.svg

<svg width="24" height="24" viewBox="0 0 24 24" fill="none" xmlns="http://www.w3.org/2000/svg">
<path fill-rule="evenodd" clip-rule="evenodd" d="M1.4981 8.08253L3.72558 19.4974L22.4979 15.9125L20.2712 4.49757L1.4981 8.08253ZM21.7479 4.20508L23.9679 15.635C24.0436 16.025 23.9679 16.4225 23.7429 16.7525C23.5186 17.0824 23.1736 17.3074 22.7829 17.3899L4.01058 20.9674C3.91308 20.9899 3.81559 20.9974 3.72559 20.9974C3.02134 20.9974 2.3906 20.5024 2.2481 19.7899L0.0281247 8.36004C-0.0468745 7.97004 0.0281247 7.57255 0.253122 7.24255C0.47812 6.91255 0.823117 6.68755 1.21311 6.60506L19.9862 3.02759C20.7962 2.87009 21.5904 3.40259 21.7479 4.20508ZM11.5779 15.4178C11.1384 14.9783 11.1384 14.2666 11.5779 13.8271C12.0174 13.3876 12.7291 13.3876 13.1686 13.8271C13.6081 14.2666 13.6081 14.9783 13.1686 15.4178C12.7291 15.8573 12.0174 15.8573 11.5779 15.4178ZM11.6137 10.7253C10.5089 10.9368 9.55346 11.5653 8.92271 12.4953C8.69022 12.838 8.77947 13.3045 9.12221 13.537C9.25121 13.6247 9.39746 13.6667 9.54221 13.6667C9.78296 13.6667 10.0185 13.552 10.1632 13.3375C10.5697 12.7398 11.1847 12.3348 11.8957 12.199C12.6067 12.0618 13.3267 12.211 13.9252 12.6175C14.2687 12.8515 14.7344 12.7623 14.9669 12.4188C15.1994 12.0768 15.1102 11.6103 14.7674 11.377C13.8382 10.7455 12.7192 10.513 11.6137 10.7253ZM6.63353 10.942C7.67902 9.40006 9.26375 8.35907 11.093 8.00807C12.923 7.65857 14.7799 8.04107 16.3219 9.08731C16.6647 9.31981 16.7539 9.7863 16.5207 10.129C16.2889 10.4718 15.8232 10.5625 15.4797 10.3285C14.2692 9.5073 12.812 9.20656 11.3757 9.4818C9.93874 9.7563 8.69601 10.5745 7.87402 11.7843C7.72927 11.998 7.49302 12.1135 7.25302 12.1135C7.10827 12.1135 6.96127 12.0715 6.83228 11.9838C6.48953 11.7513 6.40028 11.2848 6.63353 10.942Z" fill="black"/>
</svg>

<svg xmlns="http://www.w3.org/2000/svg" width="24" height="24" fill="none" viewBox="0 0 24 24"><path fill="currentColor" fill-rule="evenodd" d="m1.498 8.083 2.228 11.414 18.772-3.585L20.27 4.499zm20.25-3.878 2.22 11.43c.076.39 0 .787-.225 1.118a1.54 1.54 0 0 1-.96.637L4.01 20.967c-.098.023-.195.03-.285.03a1.51 1.51 0 0 1-1.478-1.207L.028 8.36c-.075-.39 0-.787.225-1.117s.57-.555.96-.638l18.773-3.577a1.507 1.507 0 0 1 1.762 1.177m-10.17 11.213a1.124 1.124 0 1 1 1.59-1.59 1.124 1.124 0 0 1-1.59 1.59m.036-4.693a4.18 4.18 0 0 0-2.691 1.77.75.75 0 0 0 1.24.843 2.7 2.7 0 0 1 1.733-1.139 2.68 2.68 0 0 1 2.03.418.75.75 0 0 0 .842-1.24 4.17 4.17 0 0 0-3.154-.652m-4.98.217a6.93 6.93 0 0 1 4.459-2.934 6.94 6.94 0 0 1 5.229 1.08.75.75 0 1 1-.842 1.24 5.44 5.44 0 0 0-4.104-.846 5.44 5.44 0 0 0-3.502 2.302.749.749 0 1 1-1.24-.842" clip-rule="evenodd"/></svg>
